X:1
T:Come la cera'l foco
T:Giammateo Asola
T:Source : Madrigali a due voci---Venetia---G.Vincenti---1587. Editor : André Vierendeels (19/04/17).
T:Notes : Original clefs : C3, C3 "Fuga di mezo tempo, all unisono" 
T:Come la cera'l foco  
T:©
T:©
T:©
C:Giammateo Asola
Z:©
%%score [ 1 2 ]
L:1/8
Q:1/4=120
M:4/4
K:C
V:1 treble-8 nm="Tenor 1" snm="T 1"
V:2 treble-8 nm="Tenor 2" snm="T 2"
V:1
 c4 B2 G2 | A2 A2 G2 g2- | g2 f2 g2 e2 | c2 d2 e2 c2- | c2 B2 A4 | G4 z2 c2- | c2 B4 A2- | %7
w: Co- me la|ce- ra'l fo- *|* * co, ch'ac-|cend' es- ca ter-|* * re-|na, si|_ va strug-|
 A2 G4 F2 | G4 z2 d2 | d2 d2 B2 B2 | G4 G4 | z4 g4 | g2 g2 e4 | c4 z2 g2 | g2 g2 e4 | c4 z2 g2 | %16
w: * gen- *|do, e|man- c'a po- co'a|po- co,|co-|si gl'af- fa-|ni, co-|si gl'af- fa-|ni on-|
 e2 c2 d2 G2 | A4 G4 | z2 c2- cc B2 | c2 e2 d2 d2 | c4 G4 | z2 g2- g2 g2 | e3 d c2 B2 | %23
w: de la vi- ta'è|pie- na,|e _ le gio-|ie'i di- let- ti,|va- ni|ei _ ter-|re _ _ str'af-|
 c3 B A2 G2 | z2 c2- c2 B2- | B2 A2 G4 | G2 c2 B2 e2 | d2 e2 z2 c2 | B2 c2 A4 | G2 g2 g2 f2 | %30
w: fet- * * ti,|si _ van|_ strug- gen-|do, si van strug-|gen- do, si|van strug- gen-|do, si van strug-|
 e4 d4 | c4 B4 | A4 G2 g2- | g2 f2 g2 c2- | c2 d2 e4 | e2 f2 g3 f | e2 d2 e2 c2- | c2 B2 c4 | %38
w: gen- do'a|que- ste|Fiam- * *|* * me, ch'ac-|* cend' es-|ca d'a- mor _|_ ce- le- *|* * ste,|
 z2 g2- gfed | e3 d cB c2- | c2 B2 A4 | G2 G2 c3 d | e2 d2 e2 g2- | g2 f2 g2 G2 | A2 A2 B2 B2 | %45
w: ch'ac- * * * *||* cend' es-|ca d'a- mor _|_ ce- le- *|* * ste, ch'ac-|cend' es- ca d'a-|
 c2 e2 d4 | e2 c2 c2 B2 | c2 A2 G4 | c4 d4 | e2 c4 B2 | c8 |] %51
w: mor ce- le-|ste, ch'ac- cend' es-|ca d'a- mor|ce- le-||ste.|
V:2
 z8 | c4 B2 G2 | A2 A2 G2 g2- | g2 f2 g2 e2 | c2 d2 e2 c2- | c2 B2 A4 | G4 z2 c2- | c2 B4 A2- | %8
w: |Co- me la|ce- ra'l fo- *|* * co, ch'ac-|cend' es- ca ter-|* * re-|na, si|_ va strug-|
 A2 G4 F2 | G4 z2 d2 | d2 d2 B2 B2 | G4 G4 | z4 g4 | g2 g2 e4 | c4 z2 g2 | g2 g2 e4 | c4 z2 g2 | %17
w: * gen- *|do, e|man- c'a po- co'a|po- co,|co-|si gl'af- fa-|ni, co-|si gl'af- fa-|ni on-|
 e2 c2 d2 G2 | A4 G4 | z2 c2- cc B2 | c2 e2 d2 d2 | c4 G4 | z2 g2- g2 g2 | e3 d c2 B2 | %24
w: de la vi- ta'è|pie- na,|e _ le gio-|ie'i di- let- ti,|va ni|ei _ ter-|r _ _ str'af-|
 c3 B A2 G2 | z2 c2- c2 B2- | B2 A2 G4 | G2 c2 B2 e2 | d2 e2 z2 c2 | B2 c2 A4 | G2 g2 g2 f2 | %31
w: fet- * * ti,|si _ van|_ strug- gen-|do, si van strug-|gen- do, si|van strug- gen-|do, si van strug-|
 e4 d4 | c4 B4 | A4 G2 g2- | g2 f2 g2 c2- | c2 d2 e4 | e2 f2 g3 f | e2 d2 e2 c2- | c2 B2 c4 | %39
w: gen- do'a|que- ste|Fiam- * *|* * me, ch'ac-|* cend' es-|ca d'a- mor _|_ ce- le- *|* * ste,|
 z2 g2- gfed | e3 d cB c2- | c2 B2 A4 | G2 G2 c3 d | e2 d2 e2 g2- | g2 f2 g2 G2 | A2 A2 B2 B2 | %46
w: ch'ac- * * * *||* cend' es-|ca d'a- mor _|_ ce- le- *|* * ste, ch'ac-|cend' es- ca d'a-|
 c2 e2 d4 | e2 c2 c2 B2 | c2 A2 G4 | c4 d4 | c8 |] %51
w: mor ce- le-|ste, ch'ac- cend' es-|ca d'a- mor|ce- le-|ste.|

